FINK
CUT[ICH ARMES WELSCHES TEUFEL]
REG[Europa, Mitteleuropa, Deutschland]
KEY[F0069  16  C 2/4]
MEL[-5_  1_1_-5_-5_  -6_-6_0_
    -3_  -4_.-2-5_-5_  -1__0_
    1_  1__-1_1_  1__-1_
    -3_  -4_.-2-5_-5_  -1__0_
    1_  1_3_3_2_  2_1_0_
    1_  2_2_-7_-7_  1__
    3__  1__3__  1__30
    1_  2_2_-7_-7_  1__0_
    3_  3_5_5_4_  4_3_0_
    5_  4_4_2_2_  3__
    5__  3__5__  3__50
    5_  4_4_2_2_  3__0_ //] >>
FCT[Scherz -, Wander - Lied]
